static/logos/android-glyph-white.svg

<svg width="65" height="64" viewBox="0 0 65 64" fill="none" xmlns="http://www.w3.org/2000/svg">
<g clip-path="url(#clip0_1204_186)">
<path d="M9.41242 20.7831C8.31116 20.7831 7.37649 21.1671 6.60841 21.9353C5.45629 23.0875 5.45605 23.6252 5.45605 24.7011V41.2193C5.45605 42.3221 5.84013 43.2558 6.60841 44.024C7.37649 44.7923 8.31116 45.1764 9.41242 45.1764C10.5131 45.1764 11.4417 44.7923 12.1981 44.024C12.9528 43.2559 13.3312 42.3221 13.3312 41.2193V24.7011C13.3312 23.6252 12.9471 22.7033 12.1789 21.9353C11.0265 20.7833 10.4883 20.7831 9.41242 20.7831ZM41.2203 5.9546L43.9478 0.923093C44.1269 0.589986 44.0632 0.33455 43.7562 0.154935C43.423 5.56112e-05 43.167 0.0785357 42.988 0.384828L40.2224 5.45656C37.7888 4.38061 35.2149 3.84165 32.5007 3.84165C29.7859 3.84165 27.2118 4.38072 24.7791 5.45656L22.0134 0.384828C21.8337 0.0785357 21.5776 0.000749107 21.2452 0.154935C20.9376 0.335359 20.8739 0.589986 21.0536 0.923093L23.7812 5.9546C21.0155 7.36505 18.8127 9.32936 17.1737 11.8518C15.5348 14.3757 14.715 17.1337 14.715 20.1307H50.2478C50.2478 17.1344 49.4279 14.3762 47.7891 11.8518C46.15 9.32936 43.96 7.36505 41.2203 5.9546ZM25.4511 13.273C25.1562 13.5687 24.8039 13.7158 24.3944 13.7158C23.9841 13.7158 23.6389 13.5687 23.3574 13.273C23.0758 12.9787 22.935 12.6278 22.935 12.2169C22.935 11.8074 23.0758 11.4558 23.3574 11.1609C23.6391 10.8666 23.9848 10.7195 24.3944 10.7195C25.0088 10.7195 25.1562 10.8666 25.4511 11.1609C25.7454 11.4565 25.8932 11.8074 25.8932 12.2169C25.8924 12.6271 25.7447 12.9787 25.4511 13.273ZM41.6425 13.273C41.3604 13.5687 41.0145 13.7158 40.6057 13.7158C40.1952 13.7158 39.843 13.5687 39.5487 13.273C39.2538 12.9787 39.1067 12.6278 39.1067 12.2169C39.1067 11.8074 39.2538 11.4558 39.5487 11.1609C39.843 10.8666 40.1953 10.7195 40.6057 10.7195C41.0152 10.7195 41.3603 10.8666 41.6425 11.1609C41.9243 11.4565 42.0649 11.8074 42.0649 12.2169C42.0649 12.6271 41.9242 12.9787 41.6425 13.273ZM14.8675 47.0968C14.8675 48.2759 15.277 49.2741 16.0962 50.0932C16.916 50.9124 17.9142 51.3219 19.0925 51.3219H21.9354L21.9743 60.043C21.9743 61.1444 22.3584 62.0793 23.1266 62.8477C24.2788 64.0003 24.8172 64.0001 25.8923 64.0001C26.993 64.0001 27.9281 63.616 28.6963 62.8477C29.4646 62.0794 29.8487 61.1444 29.8487 60.043V51.3227H35.1497V60.043C35.1497 61.1444 35.5338 62.0793 36.302 62.8477C37.4542 64.0003 38.0045 64.0001 39.106 64.0001C40.2067 64.0001 41.1417 63.616 41.91 62.8477C42.6783 62.0794 43.0622 61.1444 43.0622 60.043V51.3227H45.9435C47.0957 51.3227 48.081 50.9131 48.9017 50.0939C49.7207 49.2748 50.1304 48.2766 50.1304 47.0976V21.5123H14.8675V47.0968ZM55.5875 20.7831C54.5115 20.7831 53.5899 21.1615 52.8216 21.9162C52.0535 22.6724 51.6694 23.6012 51.6694 24.7011V41.2193C51.6694 42.3221 52.0534 43.2558 52.8216 44.024C53.5899 44.7923 54.5122 45.1764 55.5875 45.1764C56.6882 45.1764 57.6232 44.7923 58.3915 44.024C59.1598 43.2558 59.5437 42.3221 59.5437 41.2193V24.7011C59.5437 23.6011 59.1598 22.6724 58.3915 21.9162C57.6232 21.1615 56.6882 20.7831 55.5875 20.7831Z" fill="white"/>
</g>
<defs>
<clipPath id="clip0_1204_186">
<rect width="64" height="64" fill="white" transform="translate(0.5)"/>
</clipPath>
</defs>
</svg>

<svg xmlns="http://www.w3.org/2000/svg" width="65" height="64" fill="none"><g clip-path="url(#a)"><path fill="#fff" d="M9.412 20.783q-1.651 0-2.804 1.152c-1.152 1.152-1.152 1.69-1.152 2.766V41.22q0 1.654 1.152 2.805t2.804 1.152q1.652 0 2.786-1.152 1.133-1.151 1.133-2.805V24.701q0-1.614-1.152-2.766c-1.152-1.152-1.69-1.152-2.767-1.152M41.22 5.955 43.948.923q.269-.499-.192-.768-.5-.23-.768.23l-2.766 5.072a18.9 18.9 0 0 0-7.721-1.615q-4.073 0-7.722 1.615L22.013.385q-.27-.46-.768-.23-.46.27-.191.768l2.727 5.032q-4.148 2.114-6.607 5.897-2.46 3.785-2.459 8.279h35.533q0-4.494-2.459-8.28Q45.33 8.07 41.22 5.956m-15.769 7.318a1.44 1.44 0 0 1-1.057.443q-.614 0-1.037-.443a1.47 1.47 0 0 1-.422-1.056q0-.614.422-1.056a1.38 1.38 0 0 1 1.037-.441c.615 0 .762.147 1.057.44q.441.444.442 1.057 0 .615-.442 1.056m16.191 0a1.38 1.38 0 0 1-1.036.443q-.615 0-1.057-.443a1.44 1.44 0 0 1-.442-1.056q0-.614.442-1.056a1.44 1.44 0 0 1 1.057-.441q.614 0 1.036.44.423.444.423 1.057 0 .615-.422 1.056M14.868 47.097q0 1.768 1.23 2.996 1.228 1.23 2.996 1.229h2.842l.04 8.721q0 1.651 1.152 2.805C24.279 64 24.817 64 25.892 64q1.652 0 2.804-1.152 1.153-1.153 1.153-2.805v-8.72h5.3v8.72q0 1.651 1.153 2.805C37.454 64 38.005 64 39.106 64q1.651 0 2.804-1.152 1.152-1.153 1.152-2.805v-8.72h2.882q1.727 0 2.958-1.23 1.228-1.227 1.228-2.995V21.512H14.868zm40.72-26.314a3.8 3.8 0 0 0-2.765 1.133q-1.153 1.134-1.153 2.785V41.22q0 1.654 1.153 2.805 1.152 1.152 2.765 1.152 1.652 0 2.804-1.152 1.153-1.151 1.153-2.805V24.701q0-1.65-1.152-2.785-1.154-1.133-2.805-1.133"/></g><defs><clipPath id="a"><path fill="#fff" d="M.5 0h64v64H.5z"/></clipPath></defs></svg>
